cards/diamond7.svg

<?xml version="1.0" encoding="UTF-8" standalone="no"?>
<!-- Created with Inkscape (http://www.inkscape.org/) -->
<svg id="svg2" xmlns:rdf="http://www.w3.org/1999/02/22-rdf-syntax-ns#" xmlns="http://www.w3.org/2000/svg" height="244.55" width="169.01" version="1.1" xmlns:cc="http://creativecommons.org/ns#" xmlns:xlink="http://www.w3.org/1999/xlink" viewBox="-0.2 -236 169.07499 244.54905" xmlns:dc="http://purl.org/dc/elements/1.1/">
 <metadata id="metadata1754">
  <rdf:RDF>
   <cc:Work rdf:about="">
    <dc:format>image/svg+xml</dc:format>
    <dc:type rdf:resource="http://purl.org/dc/dcmitype/StillImage"/>
   </cc:Work>
  </rdf:RDF>
 </metadata>
 <defs id="defs4">
  <g id="diamond-3">
   <path id="path46815" fill="#e6180a" d="m0 0h-7.68c0.8747 0.039 1.619 0.605 2.322 1.0728 1.579 1.1912 3.058 2.5572 4.226 4.1552 0.545 0.804 1.1176 1.708 1.132 2.712m-7.68-7.94c1.11-0.035 2.058-0.7413 2.904-1.393 1.495-1.255 2.789-2.748 3.881-4.364 0.401-0.669 0.873-1.378 0.895-2.183v7.94m0-7.94c0.038 1.182 0.758 2.206 1.438 3.12 1.212 1.51 2.648 2.846 4.228 3.963 0.614 0.383 1.266 0.8385 2.014 0.857h-7.68m7.68 0c-1.11 0.035-2.058 0.741-2.904 1.392-1.495 1.256-2.789 2.749-3.881 4.365-0.401 0.669-0.8725 1.378-0.895 2.183v-7.94"/>
  </g>
  <g id="base-6">
   <path id="path46797" d="m0 0c0 3.78 3.09 6.87 6.87 6.87h152.84c3.77 0 6.86-3.09 6.86-6.87v-228.4c0-3.78-3.09-6.87-6.86-6.87h-152.84c-3.78 0-6.87 3.09-6.87 6.87v228.4z" stroke="#000" stroke-width="2.5" fill="#fff"/>
  </g>
  <g id="n_7-70">
   <text id="text46776" font-weight="bold" transform="scale(.56453 1.0574)" font-size="43px" font-family="Bitstream Vera Serif">7</text>
  </g>
 </defs>
 <g id="7_diamond" transform="translate(-1004.4 -242.66)">
  <use id="use48161" xlink:href="#base-6" height="1" width="1" y="243.13699" x="1005.45"/>
  <use id="use48163" xlink:href="#n_7-70" height="1" width="1" y="44.02" x="1009.45" fill="#e6180a"/>
  <use id="use48165" xlink:href="#n_7-70" transform="matrix(-1 0 0 -1 2338 425.71)" height="1" width="1" y="212.85699" x="1169.02" fill="#e6180a"/>
  <use id="use48167" xlink:href="#diamond-3" transform="matrix(-1,0,0,-1,2038.2,116.04)" height="1" width="1" y="58.02" x="1019.1"/>
  <use id="use48169" xlink:href="#diamond-3" height="1" width="1" y="198.85699" x="1159.37"/>
  <use id="use48171" xlink:href="#diamond-3" transform="matrix(-2.4 0 0 -2.4 2098.6 89.255)" height="1" width="1" y="18.594801" x="437.21201"/>
  <use id="use48173" xlink:href="#diamond-3" transform="matrix(-2.4 0 0 -2.4 2098.6 243.14)" height="1" width="1" y="50.653599" x="437.21201"/>
  <use id="use48175" xlink:href="#diamond-3" transform="scale(2.4)" height="1" width="1" y="86.708298" x="437.21201"/>
  <use id="use48177" xlink:href="#diamond-3" transform="matrix(-2.4 0 0 -2.4 2258.3 89.255)" height="1" width="1" y="18.594801" x="470.48599"/>
  <use id="use48179" xlink:href="#diamond-3" transform="matrix(-2.4 0 0 -2.4 2258.3 243.14)" height="1" width="1" y="50.653599" x="470.48599"/>
  <use id="use48181" xlink:href="#diamond-3" transform="scale(2.4)" height="1" width="1" y="86.708298" x="470.48599"/>
  <use id="use48183" xlink:href="#diamond-3" transform="matrix(-2.4 0 0 -2.4 2178.5 197.57)" height="1" width="1" y="41.159901" x="453.849"/>
 </g>
</svg>

<?xml version="1.0" encoding="UTF-8" standalone="no"?>
<!-- Created with Inkscape (http://www.inkscape.org/) -->

<svg
   xmlns:dc="http://purl.org/dc/elements/1.1/"
   xmlns:cc="http://creativecommons.org/ns#"
   xmlns:rdf="http://www.w3.org/1999/02/22-rdf-syntax-ns#"
   xmlns:svg="http://www.w3.org/2000/svg"
   xmlns="http://www.w3.org/2000/svg"
   xmlns:xlink="http://www.w3.org/1999/xlink"
   xmlns:sodipodi="http://sodipodi.sourceforge.net/DTD/sodipodi-0.dtd"
   xmlns:inkscape="http://www.inkscape.org/namespaces/inkscape"
   version="1.1"
   width="169.01213"
   height="244.54904"
   viewBox="-0.2 -236 169.07499 244.54905"
   id="svg2"
   inkscape:version="0.48.1 r9760"
   sodipodi:docname="diamond7.svg">
  <metadata
     id="metadata1754">
    <rdf:RDF>
      <cc:Work
         rdf:about="">
        <dc:format>image/svg+xml</dc:format>
        <dc:type
           rdf:resource="http://purl.org/dc/dcmitype/StillImage" />
      </cc:Work>
    </rdf:RDF>
  </metadata>
  <sodipodi:namedview
     pagecolor="#ffffff"
     bordercolor="#666666"
     borderopacity="1"
     objecttolerance="10"
     gridtolerance="10"
     guidetolerance="10"
     inkscape:pageopacity="0"
     inkscape:pageshadow="2"
     inkscape:window-width="640"
     inkscape:window-height="480"
     id="namedview1752" />
  <defs
     id="defs4">
    <g
       transform="matrix(0.4,0,0,0.4,236.59,667.12)"
       id="lys"
       style="fill:#ffffff;fill-opacity:1;stroke:none">
      <path
         d="m 355.65,280.19 c 0,0 -3.75,-8.1 -8.1,-12.6 -4.36,-4.51 -9.68,-7.58 -11.04,-6.53"
         transform="translate(-1.35,-0.76)"
         id="lys_1"
         style="fill:#ffffff;fill-opacity:1;fill-rule:evenodd;stroke:none" />
      <path
         d="m 368.97,258.94 c -2.29,0.08 -5.9,1.92 -7.85,3.87 -2.59,2.6 -3.52,7.58 -3.59,9.44 -0.07,1.86 -1.32,-0.84 -2.19,-2.37 -0.86,-1.54 -1.93,-5.4 -2.22,-3.22 -0.28,2.2 -0.34,3.26 0.07,5.72 0.4,2.45 1.59,7.15 2.56,8.68 l 3.97,3.94 c 1.87,-1.88 3.1,-6.25 3.19,-6.25 l -0.07,9.34 4.35,4.32 c -1.16,-2.37 -1.94,-6.58 -1.63,-10.38 0.32,-3.8 2.3,-8.59 2.06,-10.44 -1.14,-0.4 -2.9,2.58 -5.21,1.88 -0.08,-1.75 0.74,-6.02 1.9,-7.69 1.17,-1.66 4.43,-5.7 6.41,-6.28 -0.36,-0.42 -0.99,-0.59 -1.75,-0.56 z"
         id="lys_2"
         style="fill:#ffffff;fill-opacity:1;fill-rule:evenodd;stroke:none" />
      <path
         d="m 329.36,254.28 c 9.62,-4.95 19.64,8.3 19.64,8.3 0,0 1.44,-9.25 3.32,-9.36 1.88,-0.11 4.87,7.31 4.87,7.31 0,0 5.76,-7.64 15.72,-7.58 9.97,0.05 11.57,9.13 5.87,9.57 -5.66,0.44 -2.38,-5.15 -2.27,-3.65 0.06,0.17 -5.37,-7.75 -19.15,7.86 -2.03,2.3 -3.94,-8.46 -4.93,-6.09 -1.21,2.88 -0.22,6.26 -1.11,8.53 1.39,1.71 -11.35,-13.84 -16.77,-9.58"
         transform="translate(-1.35,-0.76)"
         id="lys_3"
         style="fill:#ffffff;fill-opacity:1;fill-rule:evenodd;stroke:none" />
      <use
         transform="matrix(0,1,1,0,74.5,-74.49)"
         id="use646"
         style="fill:#ffffff;fill-opacity:1;stroke:none"
         x="0"
         y="0"
         width="2178.99"
         height="1216.1899"
         xlink:href="#lys_3" />
      <use
         transform="matrix(0,1,1,0,74.9,-74.93)"
         id="use648"
         style="fill:#ffffff;fill-opacity:1;stroke:none"
         x="0"
         y="0"
         width="2178.99"
         height="1216.1899"
         xlink:href="#lys_1" />
      <use
         transform="matrix(0,1,1,0,74.82,-74.82)"
         id="use650"
         style="fill:#ffffff;fill-opacity:1;stroke:none"
         x="0"
         y="0"
         width="2178.99"
         height="1216.1899"
         xlink:href="#lys_2" />
    </g>
    <g
       transform="matrix(0.4,0,0,0.4,236.59,667.12)"
       id="lys-8"
       style="fill:#ffffff;fill-opacity:1;stroke:none">
      <path
         d="m 355.65,280.19 c 0,0 -3.75,-8.1 -8.1,-12.6 -4.36,-4.51 -9.68,-7.58 -11.04,-6.53"
         transform="translate(-1.35,-0.76)"
         id="lys_1-0"
         style="fill:#ffffff;fill-opacity:1;fill-rule:evenodd;stroke:none" />
      <path
         d="m 368.97,258.94 c -2.29,0.08 -5.9,1.92 -7.85,3.87 -2.59,2.6 -3.52,7.58 -3.59,9.44 -0.07,1.86 -1.32,-0.84 -2.19,-2.37 -0.86,-1.54 -1.93,-5.4 -2.22,-3.22 -0.28,2.2 -0.34,3.26 0.07,5.72 0.4,2.45 1.59,7.15 2.56,8.68 l 3.97,3.94 c 1.87,-1.88 3.1,-6.25 3.19,-6.25 l -0.07,9.34 4.35,4.32 c -1.16,-2.37 -1.94,-6.58 -1.63,-10.38 0.32,-3.8 2.3,-8.59 2.06,-10.44 -1.14,-0.4 -2.9,2.58 -5.21,1.88 -0.08,-1.75 0.74,-6.02 1.9,-7.69 1.17,-1.66 4.43,-5.7 6.41,-6.28 -0.36,-0.42 -0.99,-0.59 -1.75,-0.56 z"
         id="lys_2-3"
         style="fill:#ffffff;fill-opacity:1;fill-rule:evenodd;stroke:none" />
      <path
         d="m 329.36,254.28 c 9.62,-4.95 19.64,8.3 19.64,8.3 0,0 1.44,-9.25 3.32,-9.36 1.88,-0.11 4.87,7.31 4.87,7.31 0,0 5.76,-7.64 15.72,-7.58 9.97,0.05 11.57,9.13 5.87,9.57 -5.66,0.44 -2.38,-5.15 -2.27,-3.65 0.06,0.17 -5.37,-7.75 -19.15,7.86 -2.03,2.3 -3.94,-8.46 -4.93,-6.09 -1.21,2.88 -0.22,6.26 -1.11,8.53 1.39,1.71 -11.35,-13.84 -16.77,-9.58"
         transform="translate(-1.35,-0.76)"
         id="lys_3-7"
         style="fill:#ffffff;fill-opacity:1;fill-rule:evenodd;stroke:none" />
      <use
         transform="matrix(0,1,1,0,74.5,-74.49)"
         id="use3823"
         style="fill:#ffffff;fill-opacity:1;stroke:none"
         x="0"
         y="0"
         width="169.075"
         height="244.54906"
         xlink:href="#lys_3-7" />
      <use
         transform="matrix(0,1,1,0,74.9,-74.93)"
         id="use3825"
         style="fill:#ffffff;fill-opacity:1;stroke:none"
         x="0"
         y="0"
         width="169.075"
         height="244.54906"
         xlink:href="#lys_1-0" />
      <use
         transform="matrix(0,1,1,0,74.82,-74.82)"
         id="use3827"
         style="fill:#ffffff;fill-opacity:1;stroke:none"
         x="0"
         y="0"
         width="169.075"
         height="244.54906"
         xlink:href="#lys_2-3" />
    </g>
    <g
       transform="matrix(0.4,0,0,0.4,236.59,667.12)"
       id="lys-87"
       style="fill:#ffffff;fill-opacity:1;stroke:none">
      <path
         d="m 355.65,280.19 c 0,0 -3.75,-8.1 -8.1,-12.6 -4.36,-4.51 -9.68,-7.58 -11.04,-6.53"
         transform="translate(-1.35,-0.76)"
         id="lys_1-3"
         style="fill:#ffffff;fill-opacity:1;fill-rule:evenodd;stroke:none" />
      <path
         d="m 368.97,258.94 c -2.29,0.08 -5.9,1.92 -7.85,3.87 -2.59,2.6 -3.52,7.58 -3.59,9.44 -0.07,1.86 -1.32,-0.84 -2.19,-2.37 -0.86,-1.54 -1.93,-5.4 -2.22,-3.22 -0.28,2.2 -0.34,3.26 0.07,5.72 0.4,2.45 1.59,7.15 2.56,8.68 l 3.97,3.94 c 1.87,-1.88 3.1,-6.25 3.19,-6.25 l -0.07,9.34 4.35,4.32 c -1.16,-2.37 -1.94,-6.58 -1.63,-10.38 0.32,-3.8 2.3,-8.59 2.06,-10.44 -1.14,-0.4 -2.9,2.58 -5.21,1.88 -0.08,-1.75 0.74,-6.02 1.9,-7.69 1.17,-1.66 4.43,-5.7 6.41,-6.28 -0.36,-0.42 -0.99,-0.59 -1.75,-0.56 z"
         id="lys_2-2"
         style="fill:#ffffff;fill-opacity:1;fill-rule:evenodd;stroke:none" />
      <path
         d="m 329.36,254.28 c 9.62,-4.95 19.64,8.3 19.64,8.3 0,0 1.44,-9.25 3.32,-9.36 1.88,-0.11 4.87,7.31 4.87,7.31 0,0 5.76,-7.64 15.72,-7.58 9.97,0.05 11.57,9.13 5.87,9.57 -5.66,0.44 -2.38,-5.15 -2.27,-3.65 0.06,0.17 -5.37,-7.75 -19.15,7.86 -2.03,2.3 -3.94,-8.46 -4.93,-6.09 -1.21,2.88 -0.22,6.26 -1.11,8.53 1.39,1.71 -11.35,-13.84 -16.77,-9.58"
         transform="translate(-1.35,-0.76)"
         id="lys_3-5"
         style="fill:#ffffff;fill-opacity:1;fill-rule:evenodd;stroke:none" />
      <use
         transform="matrix(0,1,1,0,74.5,-74.49)"
         id="use26559"
         style="fill:#ffffff;fill-opacity:1;stroke:none"
         x="0"
         y="0"
         width="169.075"
         height="244.54906"
         xlink:href="#lys_3-5" />
      <use
         transform="matrix(0,1,1,0,74.9,-74.93)"
         id="use26561"
         style="fill:#ffffff;fill-opacity:1;stroke:none"
         x="0"
         y="0"
         width="169.075"
         height="244.54906"
         xlink:href="#lys_1-3" />
      <use
         transform="matrix(0,1,1,0,74.82,-74.82)"
         id="use26563"
         style="fill:#ffffff;fill-opacity:1;stroke:none"
         x="0"
         y="0"
         width="169.075"
         height="244.54906"
         xlink:href="#lys_2-2" />
    </g>
    <g
       transform="matrix(0.4,0,0,0.4,236.59,667.12)"
       id="lys-7"
       style="fill:#ffffff;fill-opacity:1;stroke:none">
      <path
         d="m 355.65,280.19 c 0,0 -3.75,-8.1 -8.1,-12.6 -4.36,-4.51 -9.68,-7.58 -11.04,-6.53"
         transform="translate(-1.35,-0.76)"
         id="lys_1-4"
         style="fill:#ffffff;fill-opacity:1;fill-rule:evenodd;stroke:none" />
      <path
         d="m 368.97,258.94 c -2.29,0.08 -5.9,1.92 -7.85,3.87 -2.59,2.6 -3.52,7.58 -3.59,9.44 -0.07,1.86 -1.32,-0.84 -2.19,-2.37 -0.86,-1.54 -1.93,-5.4 -2.22,-3.22 -0.28,2.2 -0.34,3.26 0.07,5.72 0.4,2.45 1.59,7.15 2.56,8.68 l 3.97,3.94 c 1.87,-1.88 3.1,-6.25 3.19,-6.25 l -0.07,9.34 4.35,4.32 c -1.16,-2.37 -1.94,-6.58 -1.63,-10.38 0.32,-3.8 2.3,-8.59 2.06,-10.44 -1.14,-0.4 -2.9,2.58 -5.21,1.88 -0.08,-1.75 0.74,-6.02 1.9,-7.69 1.17,-1.66 4.43,-5.7 6.41,-6.28 -0.36,-0.42 -0.99,-0.59 -1.75,-0.56 z"
         id="lys_2-1"
         style="fill:#ffffff;fill-opacity:1;fill-rule:evenodd;stroke:none" />
      <path
         d="m 329.36,254.28 c 9.62,-4.95 19.64,8.3 19.64,8.3 0,0 1.44,-9.25 3.32,-9.36 1.88,-0.11 4.87,7.31 4.87,7.31 0,0 5.76,-7.64 15.72,-7.58 9.97,0.05 11.57,9.13 5.87,9.57 -5.66,0.44 -2.38,-5.15 -2.27,-3.65 0.06,0.17 -5.37,-7.75 -19.15,7.86 -2.03,2.3 -3.94,-8.46 -4.93,-6.09 -1.21,2.88 -0.22,6.26 -1.11,8.53 1.39,1.71 -11.35,-13.84 -16.77,-9.58"
         transform="translate(-1.35,-0.76)"
         id="lys_3-3"
         style="fill:#ffffff;fill-opacity:1;fill-rule:evenodd;stroke:none" />
      <use
         transform="matrix(0,1,1,0,74.5,-74.49)"
         id="use35367"
         style="fill:#ffffff;fill-opacity:1;stroke:none"
         x="0"
         y="0"
         width="169.07501"
         height="244.54906"
         xlink:href="#lys_3-3" />
      <use
         transform="matrix(0,1,1,0,74.9,-74.93)"
         id="use35369"
         style="fill:#ffffff;fill-opacity:1;stroke:none"
         x="0"
         y="0"
         width="169.07501"
         height="244.54906"
         xlink:href="#lys_1-4" />
      <use
         transform="matrix(0,1,1,0,74.82,-74.82)"
         id="use35371"
         style="fill:#ffffff;fill-opacity:1;stroke:none"
         x="0"
         y="0"
         width="169.07501"
         height="244.54906"
         xlink:href="#lys_2-1" />
    </g>
    <g
       transform="matrix(0.4,0,0,0.4,236.59,667.12)"
       id="lys-3"
       style="fill:#ffffff;fill-opacity:1;stroke:none">
      <path
         d="m 355.65,280.19 c 0,0 -3.75,-8.1 -8.1,-12.6 -4.36,-4.51 -9.68,-7.58 -11.04,-6.53"
         transform="translate(-1.35,-0.76)"
         id="lys_1-36"
         style="fill:#ffffff;fill-opacity:1;fill-rule:evenodd;stroke:none" />
      <path
         d="m 368.97,258.94 c -2.29,0.08 -5.9,1.92 -7.85,3.87 -2.59,2.6 -3.52,7.58 -3.59,9.44 -0.07,1.86 -1.32,-0.84 -2.19,-2.37 -0.86,-1.54 -1.93,-5.4 -2.22,-3.22 -0.28,2.2 -0.34,3.26 0.07,5.72 0.4,2.45 1.59,7.15 2.56,8.68 l 3.97,3.94 c 1.87,-1.88 3.1,-6.25 3.19,-6.25 l -0.07,9.34 4.35,4.32 c -1.16,-2.37 -1.94,-6.58 -1.63,-10.38 0.32,-3.8 2.3,-8.59 2.06,-10.44 -1.14,-0.4 -2.9,2.58 -5.21,1.88 -0.08,-1.75 0.74,-6.02 1.9,-7.69 1.17,-1.66 4.43,-5.7 6.41,-6.28 -0.36,-0.42 -0.99,-0.59 -1.75,-0.56 z"
         id="lys_2-21"
         style="fill:#ffffff;fill-opacity:1;fill-rule:evenodd;stroke:none" />
      <path
         d="m 329.36,254.28 c 9.62,-4.95 19.64,8.3 19.64,8.3 0,0 1.44,-9.25 3.32,-9.36 1.88,-0.11 4.87,7.31 4.87,7.31 0,0 5.76,-7.64 15.72,-7.58 9.97,0.05 11.57,9.13 5.87,9.57 -5.66,0.44 -2.38,-5.15 -2.27,-3.65 0.06,0.17 -5.37,-7.75 -19.15,7.86 -2.03,2.3 -3.94,-8.46 -4.93,-6.09 -1.21,2.88 -0.22,6.26 -1.11,8.53 1.39,1.71 -11.35,-13.84 -16.77,-9.58"
         transform="translate(-1.35,-0.76)"
         id="lys_3-4"
         style="fill:#ffffff;fill-opacity:1;fill-rule:evenodd;stroke:none" />
      <use
         transform="matrix(0,1,1,0,74.5,-74.49)"
         id="use47394"
         style="fill:#ffffff;fill-opacity:1;stroke:none"
         x="0"
         y="0"
         width="169.07501"
         height="244.54906"
         xlink:href="#lys_3-4" />
      <use
         transform="matrix(0,1,1,0,74.9,-74.93)"
         id="use47396"
         style="fill:#ffffff;fill-opacity:1;stroke:none"
         x="0"
         y="0"
         width="169.07501"
         height="244.54906"
         xlink:href="#lys_1-36" />
      <use
         transform="matrix(0,1,1,0,74.82,-74.82)"
         id="use47398"
         style="fill:#ffffff;fill-opacity:1;stroke:none"
         x="0"
         y="0"
         width="169.07501"
         height="244.54906"
         xlink:href="#lys_2-21" />
    </g>
    <g
       id="diamond-3">
      <path
         d="m 0,0 c -2.56,0 -5.12,0 -7.68,0 0.8747,0.039 1.619,0.605 2.322,1.0728 C -3.779,2.264 -2.3,3.63 -1.132,5.228 -0.587,6.032 -0.0144,6.936 0,7.94 M -7.68,0 c 1.11,-0.035 2.058,-0.7413 2.904,-1.393 1.495,-1.255 2.789,-2.748 3.881,-4.364 C -0.494,-6.426 -0.022,-7.135 0,-7.94 0,-5.293 0,-2.647 0,0 m 0,-7.94 c 0.038,1.182 0.758,2.206 1.438,3.12 1.212,1.51 2.648,2.846 4.228,3.963 C 6.28,-0.474 6.932,-0.0185 7.68,0 5.12,0 2.56,0 0,0 M 7.68,0 C 6.57,0.035 5.622,0.741 4.776,1.392 3.281,2.648 1.987,4.141 0.895,5.757 0.494,6.426 0.0225,7.135 0,7.94 0,5.293 0,2.647 0,0"
         id="path46815"
         style="fill:#e6180a" />
    </g>
    <g
       id="base-6">
      <path
         d="m 0,0 c 0,3.78 3.09,6.87 6.87,6.87 l 152.845,0 c 3.77,0 6.86,-3.09 6.86,-6.87 l 0,-228.4 c 0,-3.78 -3.09,-6.87 -6.86,-6.87 l -152.845,0 c -3.78,0 -6.87,3.09 -6.87,6.87 L 0,0 z"
         id="path46797"
         style="fill:#ffffff;stroke:#000000;stroke-width:2.5" />
    </g>
    <g
       id="n_7-70">
      <text
         transform="scale(0.56453,1.05741)"
         id="text46776"
         style="font-size:43px;font-weight:bold;font-family:Bitstream Vera Serif">7</text>
    </g>
  </defs>
  <g
     transform="translate(-1004.4,-242.66247)"
     id="7_diamond">
    <use
       id="use48161"
       x="1005.45"
       y="243.13699"
       width="1"
       height="1"
       xlink:href="#base-6" />
    <use
       id="use48163"
       style="fill:#e6180a"
       x="1009.45"
       y="44.02"
       width="1"
       height="1"
       xlink:href="#n_7-70" />
    <use
       transform="matrix(-1,0,0,-1,2338.04,425.714)"
       id="use48165"
       style="fill:#e6180a"
       x="1169.02"
       y="212.85699"
       width="1"
       height="1"
       xlink:href="#n_7-70" />
    <use
       transform="matrix(-1,0,0,-1,2038.2,116.04)"
       id="use48167"
       x="1019.1"
       y="58.02"
       width="1"
       height="1"
       xlink:href="#diamond-3" />
    <use
       id="use48169"
       x="1159.37"
       y="198.85699"
       width="1"
       height="1"
       xlink:href="#diamond-3" />
    <use
       transform="matrix(-2.4,0,0,-2.4,2098.6176,89.25504)"
       id="use48171"
       x="437.21201"
       y="18.594801"
       width="1"
       height="1"
       xlink:href="#diamond-3" />
    <use
       transform="matrix(-2.4,0,0,-2.4,2098.6176,243.13728)"
       id="use48173"
       x="437.21201"
       y="50.653599"
       width="1"
       height="1"
       xlink:href="#diamond-3" />
    <use
       transform="scale(2.4,2.4)"
       id="use48175"
       x="437.21201"
       y="86.708298"
       width="1"
       height="1"
       xlink:href="#diamond-3" />
    <use
       transform="matrix(-2.4,0,0,-2.4,2258.3328,89.25504)"
       id="use48177"
       x="470.48599"
       y="18.594801"
       width="1"
       height="1"
       xlink:href="#diamond-3" />
    <use
       transform="matrix(-2.4,0,0,-2.4,2258.3328,243.13728)"
       id="use48179"
       x="470.48599"
       y="50.653599"
       width="1"
       height="1"
       xlink:href="#diamond-3" />
    <use
       transform="scale(2.4,2.4)"
       id="use48181"
       x="470.48599"
       y="86.708298"
       width="1"
       height="1"
       xlink:href="#diamond-3" />
    <use
       transform="matrix(-2.4,0,0,-2.4,2178.4752,197.56752)"
       id="use48183"
       x="453.849"
       y="41.159901"
       width="1"
       height="1"
       xlink:href="#diamond-3" />
  </g>
</svg>
